dist/img/mail.svg

<svg width="140" height="65" viewBox="0 0 140 65" fill="none" xmlns="http://www.w3.org/2000/svg">
<path d="M46.2953 19.0118H24.7273" stroke="#3A3E46" stroke-width="4" stroke-miterlimit="10" stroke-linecap="round"/>
<path d="M42.8444 33.2197H13.1884" stroke="#3A3E46" stroke-width="4" stroke-miterlimit="10" stroke-linecap="round"/>
<path d="M39.744 47.4277H2" stroke="#3A3E46" stroke-width="4" stroke-miterlimit="10" stroke-linecap="round"/>
<path d="M122.215 62.04H50.0158C46.5649 62.04 43.9767 58.8856 44.6507 55.4887L54.3294 6.42144C54.8416 3.86024 57.0793 2 59.6944 2H131.893C135.344 2 137.932 5.15432 137.258 8.55128L127.58 57.6185C127.067 60.1797 124.83 62.04 122.215 62.04Z" stroke="#3A3E46" stroke-width="4" stroke-miterlimit="10" stroke-linecap="round"/>
<path d="M56.2705 3.18628L78.89 28.313C82.4487 32.2761 88.326 33.1119 92.8283 30.3081L137.151 5.58572" stroke="#3A3E46" stroke-width="4" stroke-miterlimit="10" stroke-linecap="round"/>
</svg>

<svg width="140" height="65" fill="none" xmlns="http://www.w3.org/2000/svg"><path d="M46.295 19.012H24.727M42.844 33.22H13.188m26.556 14.208H2M122.215 62.04h-72.2c-3.45 0-6.038-3.154-5.364-6.551L54.329 6.42C54.842 3.861 57.08 2 59.694 2h72.199c3.451 0 6.039 3.154 5.365 6.551l-9.678 49.067c-.513 2.562-2.75 4.422-5.365 4.422z" stroke="#3A3E46" stroke-width="4" stroke-miterlimit="10" stroke-linecap="round"/><path d="M56.27 3.186l22.62 25.127c3.559 3.963 9.436 4.799 13.938 1.995l44.323-24.722" stroke="#3A3E46" stroke-width="4" stroke-miterlimit="10" stroke-linecap="round"/></svg>
